public/style/workarea/images/icons/exe-upload-cloud-icon.svg

<svg fill="none" height="20" viewBox="0 0 21 20" width="21" xmlns="http://www.w3.org/2000/svg" xmlns:xlink="http://www.w3.org/1999/xlink"><clipPath id="a"><path d="m.333252 0h20v20h-20z"/></clipPath><g clip-path="url(#a)" stroke="#344054" stroke-linecap="round" stroke-linejoin="round" stroke-width="1.5"><path d="m10.3333 10v7.5"/><path d="m17.3249 15.325c.8128-.4431 1.4548-1.1442 1.8249-1.9928.37-.8485.4469-1.7961.2186-2.6933-.2284-.89708-.7489-1.69261-1.4796-2.261s-1.6299-.87726-2.5556-.87787h-1.05c-.2522-.97563-.7223-1.88139-1.375-2.64918-.6527-.76778-1.4709-1.37761-2.3932-1.78365-.92232-.40604-1.92466-.59771-2.93168-.5606-1.00703.0371-1.99255.30201-2.88245.77482-.88991.4728-1.66106 1.14119-2.25547 1.95493-.5944.81373-.99661 1.75162-1.17636 2.74317-.17976.99155-.1324 2.01095.13852 2.98158.27093.9706.75836 1.8671 1.42566 2.6223"/><path d="m13.6667 13.3333-3.3334-3.3333-3.3333 3.3333"/></g></svg>

<svg width="21" height="20" viewBox="0 0 21 20" fill="none" xmlns="http://www.w3.org/2000/svg">
<g clip-path="url(#clip0_17_913)">
<path d="M10.3333 10V17.5" stroke="#344054" stroke-width="1.5" stroke-linecap="round" stroke-linejoin="round"/>
<path d="M17.3249 15.325C18.1377 14.8819 18.7797 14.1808 19.1498 13.3322C19.5198 12.4837 19.5967 11.5361 19.3684 10.6389C19.14 9.74182 18.6195 8.94629 17.8888 8.3779C17.1581 7.80951 16.2589 7.50064 15.3332 7.50003H14.2832C14.031 6.5244 13.5609 5.61864 12.9082 4.85085C12.2555 4.08307 11.4373 3.47324 10.515 3.0672C9.59268 2.66116 8.59034 2.46949 7.58332 2.5066C6.57629 2.5437 5.59077 2.80861 4.70087 3.28142C3.81096 3.75422 3.03981 4.42261 2.4454 5.23635C1.851 6.05008 1.44879 6.98797 1.26904 7.97952C1.08928 8.97107 1.13664 9.99047 1.40756 10.9611C1.67849 11.9317 2.16592 12.8282 2.83322 13.5834" stroke="#344054" stroke-width="1.5" stroke-linecap="round" stroke-linejoin="round"/>
<path d="M13.6667 13.3333L10.3333 10L7 13.3333" stroke="#344054" stroke-width="1.5" stroke-linecap="round" stroke-linejoin="round"/>
</g>
<defs>
<clipPath id="clip0_17_913">
<rect width="20" height="20" fill="white" transform="translate(0.333252)"/>
</clipPath>
</defs>
</svg>
